app/.vuepress/public/assets/img/logo.svg

<svg fill="none" height="45" viewBox="0 0 45 45" width="45" xmlns="http://www.w3.org/2000/svg"><path d="m14.4013 0h30.158l-13.3387 13.0093h-30.928608z" fill="#56dcbd"/><path d="m0 14.3184h12.9245s0 3.3117 2.5625 3.3117c2.5626 0 2.7401-3.3117 2.7401-3.3117h12.747v30.6818h-6.7033s-.5571-1.9738-2.3139-1.9738c-1.7567 0-2.2302 1.9738-2.2302 1.9738h-9.0625s-.3393-1.9738-2.21061-1.9738c-1.87132 0-2.15187 1.9738-2.15187 1.9738h-6.30172z" fill="#29328b"/><path d="m44.9634 9v-7.53906l-12.8203 12.58196v18.4571c1.0064-.9634 2.5418.3504 1.7455 1.4937l-1.7455 2.5063v7.8761l12.8203-12.9691v-7.4046-10.5024c-1.5862.7439-3.0353-1.2463-1.8402-2.5274z" fill="#477bf3"/></svg>

<svg width="45" height="45" viewBox="0 0 45 45" fill="none" xmlns="http://www.w3.org/2000/svg">
<path d="M14.4013 0H44.5593L31.2206 13.0093H0.291992L14.4013 0Z" fill="#56DCBD"/>
<path d="M0 14.3184H12.9245C12.9245 14.3184 12.9245 17.6301 15.487 17.6301C18.0496 17.6301 18.2271 14.3184 18.2271 14.3184H30.9741V45.0002H24.2708C24.2708 45.0002 23.7137 43.0264 21.9569 43.0264C20.2002 43.0264 19.7267 45.0002 19.7267 45.0002H10.6642C10.6642 45.0002 10.3249 43.0264 8.45359 43.0264C6.58227 43.0264 6.30172 45.0002 6.30172 45.0002H0V14.3184Z" fill="#29328B"/>
<path d="M44.9634 9V1.46094L32.1431 14.0429V32.5C33.1495 31.5366 34.6849 32.8504 33.8886 33.9937L32.1431 36.5V44.3761L44.9634 31.407V24.0024V13.5C43.3772 14.2439 41.9281 12.2537 43.1232 10.9726L44.9634 9Z" fill="#477BF3"/>
</svg>
